icons/svg/hand.svg

<svg width="24" height="24" viewBox="0 0 24 24" fill="none" xmlns="http://www.w3.org/2000/svg">
<path d="M4 10.059V13.4827C4 15.336 4 16.2627 4.22108 17.0187C4.74764 18.8193 6.15567 20.235 7.95629 20.865C8.55693 21.0407 9.15179 21.2276 10.3003 21.3973C10.9693 21.4961 11.6515 21.4663 12.3141 21.3311C12.617 21.2694 12.8643 21.216 13.0716 21.1712C13.5621 21.0653 14.052 20.9381 14.5026 20.7174C15.0097 20.469 15.4049 20.2111 15.9775 19.7838C16.319 19.529 16.6316 19.218 17.2569 18.5959L20.5038 15.3656C21.1654 14.7074 21.1654 13.6403 20.5038 12.9822C19.8423 12.324 18.7697 12.324 18.1082 12.9822L15.8579 15.221V10.059" stroke="currentColor" stroke-width="1.5" stroke-linecap="round" stroke-linejoin="round"/>
<path d="M12.8934 7.85214V5.94963C12.8934 5.1352 13.5571 4.47498 14.3757 4.47498C15.1943 4.47498 15.8579 5.1352 15.8579 5.94963V10.3736" stroke="currentColor" stroke-width="1.5" stroke-linecap="round" stroke-linejoin="round"/>
<path d="M9.92896 10.055V3.94963C9.92896 3.1352 10.5926 2.47498 11.4112 2.47498C12.2298 2.47498 12.8934 3.1352 12.8934 3.94963V10.0589" stroke="currentColor" stroke-width="1.5" stroke-linecap="round" stroke-linejoin="round"/>
<path d="M6.96448 7.32026V10.0589V4.95498C6.96448 4.14055 7.6281 3.47498 8.44671 3.47498C9.26533 3.47498 9.92894 4.14055 9.92894 4.95498V10.0589" stroke="currentColor" stroke-width="1.5" stroke-linecap="round" stroke-linejoin="round"/>
<path d="M6.96447 8.85434V7.94963C6.96447 7.1352 6.30085 6.47498 5.48223 6.47498C4.66362 6.47498 4 7.1352 4 7.94963V10.6883" stroke="currentColor" stroke-width="1.5" stroke-linecap="round" stroke-linejoin="round"/>
</svg>

<svg xmlns="http://www.w3.org/2000/svg" width="24" height="24" fill="none" viewBox="0 0 24 24"><path stroke="currentColor" stroke-linecap="round" stroke-linejoin="round" stroke-width="1.5" d="M4 10.059v3.424c0 1.853 0 2.78.221 3.536.527 1.8 1.935 3.216 3.735 3.846.6.176 1.196.363 2.344.532a5.8 5.8 0 0 0 2.014-.066c.303-.062.55-.115.758-.16.49-.106.98-.233 1.43-.454.508-.248.903-.506 1.475-.933.342-.255.655-.566 1.28-1.188l3.247-3.23a1.68 1.68 0 0 0 0-2.384 1.7 1.7 0 0 0-2.396 0l-2.25 2.239v-5.162"/><path stroke="currentColor" stroke-linecap="round" stroke-linejoin="round" stroke-width="1.5" d="M12.893 7.852V5.95c0-.815.664-1.475 1.483-1.475.818 0 1.482.66 1.482 1.475v4.424m-5.929-.319V3.95c0-.815.664-1.475 1.482-1.475.819 0 1.482.66 1.482 1.475v6.109M6.964 7.32v2.739-5.104a1.483 1.483 0 0 1 2.965 0v5.104M6.964 8.854V7.95c0-.815-.663-1.475-1.482-1.475C4.664 6.475 4 7.135 4 7.95v2.738"/></svg>
